X:4674
T:Northumbrian polka
O:england
R:Polka
M:2/4
L:1/8
A:Northumberland
K:A
E| Ac/d/ ec | fd ec | A/B/c/d/ ec | dB d/e/f |\
A/B/c/d/ ec | fd ec | dB e>d | cA A:|
|: a|\
ge fd | ec Aa | ge fd | e2 f/g/a | \
Aa Ba | ca da | e>f ec | A2 A :|


